dist/svg/static/time-climate1-large.svg

<svg xmlns="http://www.w3.org/2000/svg" width="48" height="48" viewBox="0 0 48 48"><path fill="none" stroke="currentColor" d="M23.5 20.5c1.7 0 3 1.3 3 3s-1.3 3-3 3-3-1.3-3-3 1.3-3 3-3z"/><path fill="none" stroke="currentColor" stroke-linejoin="round" d="M32 39.4c-2.5 1.4-5.4 2.1-8.5 2.1-9.9 0-18-8.1-18-18s8.1-18 18-18 18 8.1 18 18c0 2.3-.4 4.5-1.2 6.5M23.5 20.5V9"/><path fill="none" stroke="currentColor" d="M26.5 23.5H34"/><path d="M37 42v-9l-3 1v-1l3.4-1h.6v10z" fill="currentColor"/></svg>

<?xml version="1.0" encoding="UTF-8" standalone="no"?>
<svg width="48px" height="48px" viewBox="0 0 48 48" version="1.1" xmlns="http://www.w3.org/2000/svg" xmlns:xlink="http://www.w3.org/1999/xlink">
    <!-- Generator: sketchtool 46.2 (44496) - http://www.bohemiancoding.com/sketch -->
    <title>time-climate1-large</title>
    <desc>Created with sketchtool.</desc>
    <defs></defs>
    <g id="icons-published" stroke="none" stroke-width="1" fill="none" fill-rule="evenodd">
        <g id="briefing" transform="translate(-1728.000000, -2074.000000)"></g>
        <g id="time-climate1-large">
            <path d="M23.5,20.5 C25.2,20.5 26.5,21.8 26.5,23.5 C26.5,25.2 25.2,26.5 23.5,26.5 C21.8,26.5 20.5,25.2 20.5,23.5 C20.5,21.8 21.8,20.5 23.5,20.5 Z" id="Shape" stroke="#000000"></path>
            <path d="M32,39.4 C29.5,40.8 26.6,41.5 23.5,41.5 C13.6,41.5 5.5,33.4 5.5,23.5 C5.5,13.6 13.6,5.5 23.5,5.5 C33.4,5.5 41.5,13.6 41.5,23.5 C41.5,25.8 41.1,28 40.3,30 M23.5,20.5 L23.5,9" id="Shape" stroke="#000000" stroke-linejoin="round"></path>
            <path d="M26.5,23.5 L34,23.5" id="Shape" stroke="#000000"></path>
            <polygon id="Shape" fill="#000000" fill-rule="nonzero" points="37 42 37 33 34 34 34 33 37.4 32 38 32 38 42"></polygon>
        </g>
    </g>
</svg>
